fs/dual_screen_arrow_right_20_filled.svg

<svg viewBox="0 0 20 20" fill="none" xmlns="http://www.w3.org/2000/svg" height="1em" width="1em">
  <path d="M14.5 1C16.9853 1 19 3.01472 19 5.5C19 7.98528 16.9853 10 14.5 10C12.0147 10 10 7.98528 10 5.5C10 3.01472 12.0147 1 14.5 1ZM16.8532 5.85395L16.8557 5.85143C16.9026 5.80398 16.938 5.74949 16.9621 5.69139C16.9861 5.63331 16.9996 5.5697 17 5.503L17 5.5L17 5.497C16.9996 5.4303 16.9861 5.36669 16.9621 5.30861C16.9377 5.24964 16.9015 5.19439 16.8536 5.14645L14.8536 3.14645C14.6583 2.95118 14.3417 2.95118 14.1464 3.14645C13.9512 3.34171 13.9512 3.65829 14.1464 3.85355L15.2929 5L12.5 5C12.2239 5 12 5.22386 12 5.5C12 5.77614 12.2239 6 12.5 6H15.2929L14.1464 7.14645C13.9512 7.34171 13.9512 7.65829 14.1464 7.85355C14.3417 8.04882 14.6583 8.04882 14.8536 7.85355L16.8532 5.85395ZM14.5 11C15.8296 11 17.0491 10.5282 18 9.74284V16C18 17.1046 17.1046 18 16 18H10.5V9.27494C11.5028 10.3371 12.924 11 14.5 11ZM9.5 7.79449C9.24506 7.23985 9.07969 6.63551 9.02242 6H4C2.89543 6 2 6.89543 2 8V16C2 17.1046 2.89543 18 4 18H9.5V7.79449ZM6 15.5C6 15.2239 6.22386 15 6.5 15H7.5C7.77614 15 8 15.2239 8 15.5C8 15.7761 7.77614 16 7.5 16H6.5C6.22386 16 6 15.7761 6 15.5ZM12.5 15C12.2239 15 12 15.2239 12 15.5C12 15.7761 12.2239 16 12.5 16H13.5C13.7761 16 14 15.7761 14 15.5C14 15.2239 13.7761 15 13.5 15H12.5Z" fill="#212121"/>
</svg>

<svg viewBox="0 0 20 20" fill="none" xmlns="http://www.w3.org/2000/svg" height="1em" width="1em">
  <path d="M14.5 1a4.5 4.5 0 1 1 0 9 4.5 4.5 0 0 1 0-9Zm2.353 4.854.003-.003A.5.5 0 0 0 17 5.503v-.006a.5.5 0 0 0-.146-.35l-2-2a.5.5 0 0 0-.708.707L15.293 5H12.5a.5.5 0 0 0 0 1h2.793l-1.147 1.146a.5.5 0 0 0 .708.708l2-2ZM14.5 11c1.33 0 2.55-.472 3.5-1.257V16a2 2 0 0 1-2 2h-5.5V9.275a5.485 5.485 0 0 0 4 1.725Zm-5-3.206A5.466 5.466 0 0 1 9.022 6H4a2 2 0 0 0-2 2v8a2 2 0 0 0 2 2h5.5V7.794ZM6 15.5a.5.5 0 0 1 .5-.5h1a.5.5 0 0 1 0 1h-1a.5.5 0 0 1-.5-.5Zm6.5-.5a.5.5 0 0 0 0 1h1a.5.5 0 0 0 0-1h-1Z" fill="#212121"/>
</svg>
